material/.icons/material/monitor-cellphone.svg

<svg xmlns="http://www.w3.org/2000/svg" viewBox="0 0 24 24"><path d="M23 11h-5a1 1 0 00-1 1v9a1 1 0 001 1h5a1 1 0 001-1v-9a1 1 0 00-1-1m0 9h-5v-7h5v7M20 2H2C.89 2 0 2.89 0 4v12a2 2 0 002 2h7v2H7v2h8v-2h-2v-2h2v-2H2V4h18v5h2V4a2 2 0 00-2-2z"/></svg>

<?xml version="1.0" encoding="UTF-8"?><!DOCTYPE svg PUBLIC "-//W3C//DTD SVG 1.1//EN" "http://www.w3.org/Graphics/SVG/1.1/DTD/svg11.dtd"><svg xmlns="http://www.w3.org/2000/svg" xmlns:xlink="http://www.w3.org/1999/xlink" version="1.1" id="mdi-monitor-cellphone" width="24" height="24" viewBox="0 0 24 24"><path d="M23,11H18A1,1 0 0,0 17,12V21A1,1 0 0,0 18,22H23A1,1 0 0,0 24,21V12A1,1 0 0,0 23,11M23,20H18V13H23V20M20,2H2C0.89,2 0,2.89 0,4V16A2,2 0 0,0 2,18H9V20H7V22H15V20H13V18H15V16H2V4H20V9H22V4C22,2.89 21.1,2 20,2Z" /></svg>
